Dominus_Dark_Funeral/scalable/apps/steam.svg

<?xml version="1.0" encoding="UTF-8" standalone="no"?><svg xmlns:dc="http://purl.org/dc/elements/1.1/" xmlns:cc="http://creativecommons.org/ns#" xmlns:rdf="http://www.w3.org/1999/02/22-rdf-syntax-ns#" xmlns="http://www.w3.org/2000/svg" xmlns:xlink="http://www.w3.org/1999/xlink" width="48" height="48" viewBox="0 0 12.7 12.7"><metadata><rdf:RDF><cc:Work><dc:format>image/svg+xml</dc:format><dc:type rdf:resource="http://purl.org/dc/dcmitype/StillImage"/><dc:title/></cc:Work></rdf:RDF></metadata><defs><linearGradient id="g"><stop offset="0"/><stop offset="1" stop-opacity="0"/></linearGradient><linearGradient id="f"><stop offset="0" stop-color="#334b5f"/><stop offset="1" stop-color="#9da9ba"/></linearGradient><linearGradient id="a"><stop offset="0"/><stop offset="1" stop-color="#0c0000" stop-opacity="0"/></linearGradient><linearGradient gradientTransform="matrix(.19195 0 0 .19195 .4 -.88)" xlink:href="#b" id="n" x1="21.27" y1="43.72" x2="30.93" y2="43.72" gradientUnits="userSpaceOnUse"/><linearGradient id="b"><stop offset="0" stop-color="#556d75"/><stop offset=".81" stop-color="#899aa0"/><stop offset="1" stop-color="#89a4ad"/></linearGradient><linearGradient gradientTransform="matrix(.19195 0 0 .19195 .4 -.88)" xlink:href="#c" id="m" x1="25.44" y1="36.78" x2="29.47" y2="36.78" gradientUnits="userSpaceOnUse"/><linearGradient id="c"><stop offset="0" stop-color="#516c76"/><stop offset="1" stop-color="#5d757e"/></linearGradient><linearGradient gradientTransform="matrix(.19195 0 0 .19195 .4 -.88)" xlink:href="#b" id="l" x1="35.41" y1="29.12" x2="47.93" y2="29.12" gradientUnits="userSpaceOnUse"/><linearGradient gradientTransform="matrix(.19195 0 0 .19195 .4 -.88)" xlink:href="#d" id="k" x1="36.7" y1="22.96" x2="46.69" y2="22.96" gradientUnits="userSpaceOnUse"/><linearGradient id="d"><stop offset="0" stop-color="#576f78"/><stop offset=".26" stop-color="#9aadb5"/><stop offset="1" stop-color="#495e66"/></linearGradient><linearGradient gradientTransform="matrix(.19195 0 0 .19195 .4 -.88)" xlink:href="#e" id="j" y1="26" x2="51" y2="26" gradientUnits="userSpaceOnUse"/><linearGradient id="e"><stop offset="0" stop-color="#adc4cf"/><stop offset=".43" stop-color="#a8c1cd"/><stop offset=".44" stop-color="#f7f9fb"/><stop offset=".52" stop-color="#9dbac7"/><stop offset=".52" stop-color="#f5f8f9"/><stop offset=".63" stop-color="#e8eff2"/><stop offset=".64" stop-color="#9cc5d7"/><stop offset=".67" stop-color="#eff3f6"/><stop offset=".79" stop-color="#d8ebf4"/><stop offset="1" stop-color="#9ba0a3"/></linearGradient><linearGradient xlink:href="#f" id="h" x1="1.88" y1=".85" x2="11.69" y2="6.35" gradientUnits="userSpaceOnUse"/><linearGradient xlink:href="#g" id="i" gradientUnits="userSpaceOnUse" x1="-2.11" y1="3.91" x2="11.38" y2="8.95"/></defs><path fill="url(#h)" d="M6.35.1C4.81.1 3.57.38 2.66.96A3.67 3.67 0 0 0 1 4.22c0 1.91 1.54 4.47 2.01 5.2.54.85 1.13 1.61 1.65 2.16.68.7 1.21 1.03 1.69 1.03s1.01-.33 1.69-1.03a15.2 15.2 0 0 0 1.65-2.15c.47-.74 2-3.3 2-5.21 0-1.42-.57-2.54-1.65-3.25A6.75 6.75 0 0 0 6.35.1z"/><path d="M1.47 6.32l.02.05 5.82 5.82a5 5 0 0 0 .73-.61 15.2 15.2 0 0 0 1.65-2.15c.23-.37.73-1.2 1.18-2.17.22-.48.42-1 .57-1.52.11-.38.15-.74.18-1.1L9.66 2.68l-1-.06-1.34.4-.12 1.04-1.03 1.92-1.48-.04-.34.23z" opacity=".45" fill="url(#i)"/><path opacity=".2" d="M6.35.1C4.81.1 3.57.38 2.66.96A3.67 3.67 0 0 0 1 4.22c0 1.91 1.54 4.47 2.01 5.2.54.85 1.13 1.61 1.65 2.16.68.7 1.21 1.03 1.69 1.03s1.01-.33 1.69-1.03a15.2 15.2 0 0 0 1.65-2.15c.47-.74 2-3.3 2-5.21 0-1.42-.57-2.54-1.65-3.25A6.75 6.75 0 0 0 6.35.1zm0 .03C6.91.15 7.44.2 7.9.31a5.82 5.82 0 0 1 1.6.66 3.65 3.65 0 0 1 1.24 1.36c.14.27.25.57.32.88a4.61 4.61 0 0 1-.14 2.53c-.15.52-.36 1.04-.58 1.52-.44.97-.95 1.8-1.18 2.17a15.2 15.2 0 0 1-1.65 2.15 4.9 4.9 0 0 1-.92.78.96.96 0 0 1-.24.1.96.96 0 0 1-.24-.1 4.76 4.76 0 0 1-.92-.78 14.41 14.41 0 0 1-1.65-2.15 19.2 19.2 0 0 1-1.18-2.17c-.22-.48-.43-1-.58-1.52a4.6 4.6 0 0 1-.14-2.52 3.73 3.73 0 0 1 .84-1.64 3.65 3.65 0 0 1 1.45-1A6.83 6.83 0 0 1 6.35.13z"/><path d="M1 4.45a5.9 5.9 0 0 0 .44 1.87l2.6 1.03a1.34 1.34 0 0 0 2.64-.15L8.4 5.95a1.79 1.79 0 1 0-1.8-1.8L5.5 5.74a1.35 1.35 0 0 0-.82.17zm7.4-1.5a1.2 1.2 0 1 1 0 2.41 1.2 1.2 0 0 1 0-2.4zm0 .24a.96.96 0 1 0 0 1.92.96.96 0 0 0 0-1.92zM5.35 6.1a.98.98 0 1 1-.87 1.44l.48.2a.78.78 0 0 0 .59-1.45l-.41-.17a1 1 0 0 1 .21-.02z" style="marker:none" color="#000" overflow="visible" fill="#d0d4d6"/><g color="#000"><path style="marker:none" d="M8.4 2.18c-.99 0-1.79.79-1.8 1.77L5.5 5.55a1.34 1.34 0 0 0-.82.18L1 4.3v.15l3.67 1.47a1.33 1.33 0 0 1 .82-.18l1.11-1.6a1.8 1.8 0 0 1 3.58-.08v-.1c0-.98-.8-1.78-1.78-1.78z" overflow="visible" fill="url(#j)"/><path style="marker:none" d="M8.4 3a.96.96 0 0 0-.95 1.05.96.96 0 0 1 1.9 0v-.09A.96.96 0 0 0 8.4 3z" overflow="visible" fill="url(#k)"/><path style="marker:none" d="M7.2 4.06v.1a1.2 1.2 0 1 0 2.4-.1 1.2 1.2 0 0 1-2.4 0z" overflow="visible" fill="url(#l)"/><path style="marker:none" d="M5.35 6.09a1 1 0 0 0-.21.02l.4.17c.28.1.46.35.49.63a.78.78 0 0 0-.4-.78.99.99 0 0 0-.28-.04z" overflow="visible" fill="url(#m)"/><path style="marker:none" d="M6.33 6.97a.98.98 0 0 1-1.62.65l-.23-.09c.16.31.5.52.87.52a.98.98 0 0 0 .98-1.08z" overflow="visible" fill="url(#n)"/><path style="marker:none" d="M8.37 2.34c-.98 0-1.78.8-1.8 1.77l-1.1 1.6a1.34 1.34 0 0 0-.83.18L1 4.43v.03L4.7 5.94a1.33 1.33 0 0 1 .82-.18l1.12-1.6A1.8 1.8 0 0 1 9.66 2.9a1.78 1.78 0 0 0-1.3-.55zm0 .83a.96.96 0 0 0-.65 1.65.95.95 0 0 1 .7-1.6c.25 0 .48.1.65.25a.95.95 0 0 0-.7-.3zm.87.14a1.2 1.2 0 0 1-.87 2.02c-.32 0-.61-.13-.83-.33a1.2 1.2 0 1 0 1.7-1.7zM5.21 6.12l-.05.01.4.17c.1.03.18.08.24.15a.78.78 0 0 0-.28-.2zm.83.25a.98.98 0 0 1-1.4 1.38c.18.2.44.32.73.32a.98.98 0 0 0 .67-1.7zm-2.01.99c.05.23.17.44.33.6a1.34 1.34 0 0 1-.3-.58z" overflow="visible" fill="#fff" fill-opacity=".63"/></g></svg>

<?xml version="1.0" encoding="UTF-8" standalone="no"?>
<svg
   xmlns:dc="http://purl.org/dc/elements/1.1/"
   xmlns:cc="http://creativecommons.org/ns#"
   xmlns:rdf="http://www.w3.org/1999/02/22-rdf-syntax-ns#"
   xmlns:svg="http://www.w3.org/2000/svg"
   xmlns="http://www.w3.org/2000/svg"
   xmlns:xlink="http://www.w3.org/1999/xlink"
   xmlns:sodipodi="http://sodipodi.sourceforge.net/DTD/sodipodi-0.dtd"
   xmlns:inkscape="http://www.inkscape.org/namespaces/inkscape"
   width="48"
   height="48"
   viewBox="0 0 12.7 12.7"
   version="1.1"
   id="svg90"
   sodipodi:docname="steam.svg"
   inkscape:version="0.92.4 (5da689c313, 2019-01-14)">
  <sodipodi:namedview
     pagecolor="#ffffff"
     bordercolor="#666666"
     borderopacity="1"
     objecttolerance="10"
     gridtolerance="10"
     guidetolerance="10"
     inkscape:pageopacity="0"
     inkscape:pageshadow="2"
     inkscape:window-width="1112"
     inkscape:window-height="480"
     id="namedview92"
     showgrid="false"
     inkscape:zoom="4.9166667"
     inkscape:cx="2.1355932"
     inkscape:cy="24"
     inkscape:window-x="0"
     inkscape:window-y="25"
     inkscape:window-maximized="0"
     inkscape:current-layer="svg90" />
  <metadata
     id="metadata2">
    <rdf:RDF>
      <cc:Work>
        <dc:format>image/svg+xml</dc:format>
        <dc:type
           rdf:resource="http://purl.org/dc/dcmitype/StillImage" />
        <dc:title></dc:title>
      </cc:Work>
    </rdf:RDF>
  </metadata>
  <defs
     id="defs66">
    <linearGradient
       id="g">
      <stop
         offset="0"
         id="stop4" />
      <stop
         offset="1"
         stop-opacity="0"
         id="stop6" />
    </linearGradient>
    <linearGradient
       id="f">
      <stop
         offset="0"
         stop-color="#334b5f"
         id="stop9" />
      <stop
         offset="1"
         stop-color="#9da9ba"
         id="stop11" />
    </linearGradient>
    <linearGradient
       id="a">
      <stop
         offset="0"
         id="stop14" />
      <stop
         offset="1"
         stop-color="#0c0000"
         stop-opacity="0"
         id="stop16" />
    </linearGradient>
    <linearGradient
       gradientTransform="matrix(0.19195,0,0,0.19195,0.4,-0.88)"
       xlink:href="#b"
       id="n"
       x1="21.27"
       y1="43.72"
       x2="30.93"
       y2="43.72"
       gradientUnits="userSpaceOnUse" />
    <linearGradient
       id="b">
      <stop
         offset="0"
         stop-color="#556d75"
         id="stop20" />
      <stop
         offset=".81"
         stop-color="#899aa0"
         id="stop22" />
      <stop
         offset="1"
         stop-color="#89a4ad"
         id="stop24" />
    </linearGradient>
    <linearGradient
       gradientTransform="matrix(0.19195,0,0,0.19195,0.4,-0.88)"
       xlink:href="#c"
       id="m"
       x1="25.44"
       y1="36.78"
       x2="29.47"
       y2="36.78"
       gradientUnits="userSpaceOnUse" />
    <linearGradient
       id="c">
      <stop
         offset="0"
         stop-color="#516c76"
         id="stop28" />
      <stop
         offset="1"
         stop-color="#5d757e"
         id="stop30" />
    </linearGradient>
    <linearGradient
       gradientTransform="matrix(0.19195,0,0,0.19195,0.4,-0.88)"
       xlink:href="#b"
       id="l"
       x1="35.41"
       y1="29.12"
       x2="47.93"
       y2="29.12"
       gradientUnits="userSpaceOnUse" />
    <linearGradient
       gradientTransform="matrix(0.19195,0,0,0.19195,0.4,-0.88)"
       xlink:href="#d"
       id="k"
       x1="36.7"
       y1="22.96"
       x2="46.69"
       y2="22.96"
       gradientUnits="userSpaceOnUse" />
    <linearGradient
       id="d">
      <stop
         offset="0"
         stop-color="#576f78"
         id="stop35" />
      <stop
         offset=".26"
         stop-color="#9aadb5"
         id="stop37" />
      <stop
         offset="1"
         stop-color="#495e66"
         id="stop39" />
    </linearGradient>
    <linearGradient
       gradientTransform="matrix(0.19195,0,0,0.19195,0.4,-0.88)"
       xlink:href="#e"
       id="j"
       y1="26"
       x2="51"
       y2="26"
       gradientUnits="userSpaceOnUse" />
    <linearGradient
       id="e">
      <stop
         offset="0"
         stop-color="#adc4cf"
         id="stop43" />
      <stop
         offset=".43"
         stop-color="#a8c1cd"
         id="stop45" />
      <stop
         offset=".44"
         stop-color="#f7f9fb"
         id="stop47" />
      <stop
         offset=".52"
         stop-color="#9dbac7"
         id="stop49" />
      <stop
         offset=".52"
         stop-color="#f5f8f9"
         id="stop51" />
      <stop
         offset=".63"
         stop-color="#e8eff2"
         id="stop53" />
      <stop
         offset=".64"
         stop-color="#9cc5d7"
         id="stop55" />
      <stop
         offset=".67"
         stop-color="#eff3f6"
         id="stop57" />
      <stop
         offset=".79"
         stop-color="#d8ebf4"
         id="stop59" />
      <stop
         offset="1"
         stop-color="#9ba0a3"
         id="stop61" />
    </linearGradient>
    <linearGradient
       xlink:href="#f"
       id="h"
       x1="1.88"
       y1=".85"
       x2="11.69"
       y2="6.35"
       gradientUnits="userSpaceOnUse" />
    <linearGradient
       xlink:href="#g"
       id="i"
       gradientUnits="userSpaceOnUse"
       x1="-2.11"
       y1="3.91"
       x2="11.38"
       y2="8.95" />
  </defs>
  <path
     d="M 6.35,0.1 C 4.81,0.1 3.57,0.38 2.66,0.96 A 3.67,3.67 0 0 0 1,4.22 c 0,1.91 1.54,4.47 2.01,5.2 0.54,0.85 1.13,1.61 1.65,2.16 0.68,0.7 1.21,1.03 1.69,1.03 0.48,0 1.01,-0.33 1.69,-1.03 A 15.2,15.2 0 0 0 9.69,9.43 c 0.47,-0.74 2,-3.3 2,-5.21 0,-1.42 -0.57,-2.54 -1.65,-3.25 A 6.75,6.75 0 0 0 6.35,0.1 Z"
     id="path68"
     style="fill:url(#h)"
     inkscape:connector-curvature="0" />
  <path
     d="m 1.47,6.32 0.02,0.05 5.82,5.82 A 5,5 0 0 0 8.04,11.58 15.2,15.2 0 0 0 9.69,9.43 c 0.23,-0.37 0.73,-1.2 1.18,-2.17 0.22,-0.48 0.42,-1 0.57,-1.52 C 11.55,5.36 11.59,5 11.62,4.64 L 9.66,2.68 8.66,2.62 7.32,3.02 7.2,4.06 6.17,5.98 4.69,5.94 4.35,6.17 Z"
     id="path70"
     style="opacity:0.45;fill:url(#i)"
     inkscape:connector-curvature="0" />
  <path
     d="M 6.35,0.1 C 4.81,0.1 3.57,0.38 2.66,0.96 A 3.67,3.67 0 0 0 1,4.22 c 0,1.91 1.54,4.47 2.01,5.2 0.54,0.85 1.13,1.61 1.65,2.16 0.68,0.7 1.21,1.03 1.69,1.03 0.48,0 1.01,-0.33 1.69,-1.03 A 15.2,15.2 0 0 0 9.69,9.43 c 0.47,-0.74 2,-3.3 2,-5.21 0,-1.42 -0.57,-2.54 -1.65,-3.25 A 6.75,6.75 0 0 0 6.35,0.1 Z m 0,0.03 C 6.91,0.15 7.44,0.2 7.9,0.31 a 5.82,5.82 0 0 1 1.6,0.66 3.65,3.65 0 0 1 1.24,1.36 c 0.14,0.27 0.25,0.57 0.32,0.88 A 4.61,4.61 0 0 1 10.92,5.74 C 10.77,6.26 10.56,6.78 10.34,7.26 9.9,8.23 9.39,9.06 9.16,9.43 A 15.2,15.2 0 0 1 7.51,11.58 4.9,4.9 0 0 1 6.59,12.36 0.96,0.96 0 0 1 6.35,12.46 0.96,0.96 0 0 1 6.11,12.36 4.76,4.76 0 0 1 5.19,11.58 14.41,14.41 0 0 1 3.54,9.43 19.2,19.2 0 0 1 2.36,7.26 C 2.14,6.78 1.93,6.26 1.78,5.74 A 4.6,4.6 0 0 1 1.64,3.22 3.73,3.73 0 0 1 2.48,1.58 3.65,3.65 0 0 1 3.93,0.58 6.83,6.83 0 0 1 6.35,0.13 Z"
     id="path72"
     inkscape:connector-curvature="0"
     style="opacity:0.2" />
  <path
     d="m 1,4.45 a 5.9,5.9 0 0 0 0.44,1.87 l 2.6,1.03 A 1.34,1.34 0 0 0 6.68,7.2 L 8.4,5.95 A 1.79,1.79 0 1 0 6.6,4.15 L 5.5,5.74 A 1.35,1.35 0 0 0 4.68,5.91 Z m 7.4,-1.5 a 1.205,1.205 0 1 1 0,2.41 1.2,1.2 0 0 1 0,-2.4 z m 0,0.24 a 0.96,0.96 0 1 0 0,1.92 0.96,0.96 0 0 0 0,-1.92 z M 5.35,6.1 A 0.98,0.98 0 1 1 4.48,7.54 l 0.48,0.2 A 0.78271962,0.78271962 0 0 0 5.55,6.29 L 5.14,6.12 A 1,1 0 0 1 5.35,6.1 Z"
     style="color:#000000;overflow:visible;fill:#d0d4d6;marker:none"
     overflow="visible"
     id="path74"
     inkscape:connector-curvature="0" />
  <g
     id="g88"
     style="color:#000000">
    <path
       style="overflow:visible;fill:url(#j);marker:none"
       d="M 8.4,2.18 C 7.41,2.18 6.61,2.97 6.6,3.95 L 5.5,5.55 A 1.34,1.34 0 0 0 4.68,5.73 L 1,4.3 V 4.45 L 4.67,5.92 A 1.33,1.33 0 0 1 5.49,5.74 L 6.6,4.14 A 1.8,1.8 0 0 1 10.18,4.06 V 3.96 C 10.18,2.98 9.38,2.18 8.4,2.18 Z"
       overflow="visible"
       id="path76"
       inkscape:connector-curvature="0" />
    <path
       style="overflow:visible;fill:url(#k);marker:none"
       d="m 8.4,3 a 0.96,0.96 0 0 0 -0.95,1.05 0.96,0.96 0 0 1 1.9,0 V 3.96 A 0.96,0.96 0 0 0 8.4,3 Z"
       overflow="visible"
       id="path78"
       inkscape:connector-curvature="0" />
    <path
       style="overflow:visible;fill:url(#l);marker:none"
       d="m 7.2,4.06 v 0.1 a 1.2010412,1.2010412 0 1 0 2.4,-0.1 1.2,1.2 0 0 1 -2.4,0 z"
       overflow="visible"
       id="path80"
       inkscape:connector-curvature="0" />
    <path
       style="overflow:visible;fill:url(#m);marker:none"
       d="M 5.35,6.09 A 1,1 0 0 0 5.14,6.11 l 0.4,0.17 C 5.82,6.38 6,6.63 6.03,6.91 A 0.78,0.78 0 0 0 5.63,6.13 0.99,0.99 0 0 0 5.35,6.09 Z"
       overflow="visible"
       id="path82"
       inkscape:connector-curvature="0" />
    <path
       style="overflow:visible;fill:url(#n);marker:none"
       d="M 6.33,6.97 A 0.98,0.98 0 0 1 4.71,7.62 L 4.48,7.53 c 0.16,0.31 0.5,0.52 0.87,0.52 A 0.98,0.98 0 0 0 6.33,6.97 Z"
       overflow="visible"
       id="path84"
       inkscape:connector-curvature="0" />
    <path
       style="overflow:visible;fill:#ffffff;fill-opacity:0.62999998;marker:none"
       d="m 8.37,2.34 c -0.98,0 -1.78,0.8 -1.8,1.77 l -1.1,1.6 A 1.34,1.34 0 0 0 4.64,5.89 L 1,4.43 V 4.46 L 4.7,5.94 A 1.33,1.33 0 0 1 5.52,5.76 L 6.64,4.16 A 1.8,1.8 0 0 1 9.66,2.9 1.78,1.78 0 0 0 8.36,2.35 Z m 0,0.83 a 0.96,0.96 0 0 0 -0.65,1.65 0.95,0.95 0 0 1 0.7,-1.6 c 0.25,0 0.48,0.1 0.65,0.25 A 0.95,0.95 0 0 0 8.37,3.17 Z M 9.24,3.31 A 1.2,1.2 0 0 1 8.37,5.33 C 8.05,5.33 7.76,5.2 7.54,5 A 1.2020815,1.2020815 0 1 0 9.24,3.3 Z M 5.21,6.12 5.16,6.13 5.56,6.3 C 5.66,6.33 5.74,6.38 5.8,6.45 A 0.78,0.78 0 0 0 5.52,6.25 Z m 0.83,0.25 a 0.98290386,0.98290386 0 0 1 -1.4,1.38 c 0.18,0.2 0.44,0.32 0.73,0.32 A 0.98,0.98 0 0 0 6.04,6.37 Z M 4.03,7.36 C 4.08,7.59 4.2,7.8 4.36,7.96 A 1.34,1.34 0 0 1 4.06,7.38 Z"
       overflow="visible"
       id="path86"
       inkscape:connector-curvature="0" />
  </g>
</svg>
